icons/inbox-empty.svg

<svg xmlns="http://www.w3.org/2000/svg" viewBox="0 0 24 24" fill="currentColor">
  <path d="M3.75 9c0-2.88579 2.36421-5.25 5.25-5.25h6c2.8858 0 5.25 2.36421 5.25 5.25v5.25H14c-.4142 0-.75.3358-.75.75 0 .6858-.5642 1.25-1.25 1.25s-1.25-.5642-1.25-1.25c0-.4142-.3358-.75-.75-.75H3.75V9Zm-1.5 6c0 3.7142 3.03579 6.75 6.75 6.75h6c3.7142 0 6.75-3.0358 6.75-6.75V9c0-3.71421-3.0358-6.75-6.75-6.75H9C5.28579 2.25 2.25 5.28579 2.25 9v6Zm1.55389.75h5.55042c.32796 1.1519 1.39129 2 2.64569 2 1.2544 0 2.3177-.8481 2.6457-2h5.5504c-.3671 2.5344-2.5648 4.5-5.1961 4.5H9c-2.63131 0-4.82898-1.9656-5.19611-4.5Z"/>
</svg>

<svg width="24" height="24" viewBox="0 0 24 24" fill="none" xmlns="http://www.w3.org/2000/svg">
<path fill-rule="evenodd" clip-rule="evenodd" d="M3.75 9C3.75 6.11421 6.11421 3.75 9 3.75H15C17.8858 3.75 20.25 6.11421 20.25 9V14.25H14C13.5858 14.25 13.25 14.5858 13.25 15C13.25 15.6858 12.6858 16.25 12 16.25C11.3142 16.25 10.75 15.6858 10.75 15C10.75 14.5858 10.4142 14.25 10 14.25H3.75V9ZM2.25 15C2.25 18.7142 5.28579 21.75 9 21.75H15C18.7142 21.75 21.75 18.7142 21.75 15V9C21.75 5.28579 18.7142 2.25 15 2.25H9C5.28579 2.25 2.25 5.28579 2.25 9V15ZM3.80389 15.75H9.35431C9.68227 16.9019 10.7456 17.75 12 17.75C13.2544 17.75 14.3177 16.9019 14.6457 15.75H20.1961C19.829 18.2844 17.6313 20.25 15 20.25H9C6.36869 20.25 4.17102 18.2844 3.80389 15.75Z" fill="black"/>
</svg>
